app/content/themes/irontheme/images/general/logo.svg

<svg width="306" height="79" viewBox="0 0 306 79" fill="none" xmlns="http://www.w3.org/2000/svg">
<path d="M94.6351 61.3117C95.5225 61.0898 95.3006 60.4798 95.0788 60.2025L68.1243 46.5034L67.4033 47.2798L94.6351 61.3117Z" fill="url(#paint0_linear)"/>
<path d="M92.3236 67.2133C93.2214 67.0384 93.0319 66.4175 92.8249 66.1289L66.6267 51.0336L65.866 51.7712L92.3236 67.2133Z" fill="url(#paint1_linear)"/>
<path d="M91.8799 71.8722C92.7777 71.6972 92.5882 71.0763 92.3812 70.7877L66.1831 55.6925L65.4223 56.43L91.8799 71.8722Z" fill="url(#paint2_linear)"/>
<path d="M89.9942 75.3108C90.892 75.1359 90.7025 74.515 90.4955 74.2264L64.2973 59.1311L63.5366 59.8687L89.9942 75.3108Z" fill="url(#paint3_linear)"/>
<path d="M125.527 35.6329C125.616 34.9673 124.936 34.8749 124.585 34.9119L64.2419 38.8497L62.7999 39.9034C83.2839 38.6278 124.374 36.0766 124.862 36.0766C125.35 36.0766 125.509 35.7808 125.527 35.6329Z" fill="url(#paint4_linear)"/>
<path d="M125.796 38.4119C125.89 37.7473 125.171 37.655 124.799 37.6919L60.9969 41.6242L59.4722 42.6765C81.1307 41.4027 124.577 38.855 125.093 38.855C125.609 38.855 125.777 38.5596 125.796 38.4119Z" fill="url(#paint5_linear)"/>
<path d="M125.908 41.5178C125.995 40.8532 125.329 40.7609 124.986 40.7978L65.9847 44.7301L64.5747 45.7824C84.6033 44.5086 124.78 41.9609 125.257 41.9609C125.734 41.9609 125.89 41.6655 125.908 41.5178Z" fill="url(#paint6_linear)"/>
<path d="M126.13 44.5127C126.217 43.8481 125.551 43.7558 125.208 43.7927L66.2065 47.725L64.7966 48.7773C84.8252 47.5035 125.002 44.9558 125.479 44.9558C125.956 44.9558 126.112 44.6604 126.13 44.5127Z" fill="url(#paint7_linear)"/>
<path d="M126.019 47.6185C126.106 46.9539 125.44 46.8616 125.097 46.8985L66.0956 50.8309L64.6856 51.8832C84.7142 50.6093 124.891 48.0616 125.368 48.0616C125.845 48.0616 126.001 47.7662 126.019 47.6185Z" fill="url(#paint8_linear)"/>
<path d="M68.2354 33.969L124.474 30.6412C125.894 30.4194 126.249 31.658 126.249 32.3051C125.982 33.5031 124.954 33.8765 124.474 33.9135L94.8016 35.7992L69.2337 37.4076C63.1107 37.8069 59.6942 42.9723 58.7514 45.505C56.7991 48.6109 57.6791 53.0479 58.3631 54.8781C59.9604 58.2502 63.6875 61.1268 65.3513 62.1436L71.3967 65.8041L87.9798 75.8427C89.799 76.6858 89.3664 77.8579 88.9227 78.3385C88.3459 79.5365 86.8706 78.8377 86.205 78.3385L62.911 64.473C51.9517 59.5036 52.5027 49.2395 54.148 44.7286C57.0321 36.1209 64.7413 33.969 68.2354 33.969Z" fill="url(#paint9_radial)"/>
<path d="M46.9517 34.9963L82.1946 33.152L74.8474 25.8212L55.2318 26.1714L46.9517 34.9963Z" fill="url(#paint10_linear)"/>
<path d="M35.2196 6.04673L46.9516 34.9963L55.2318 26.1714L44.4793 0L35.2196 6.04673Z" fill="url(#paint11_linear)"/>
<path d="M35.2196 6.04675L29.9017 24.4204L37.692 35.4633L41.144 20.6616L35.2196 6.04675Z" fill="url(#paint12_linear)"/>
<path d="M29.9017 24.4203L-3.30055e-06 25.7978L17.3766 36.0235L37.692 35.4632L29.9017 24.4203Z" fill="url(#paint13_linear)"/>
<path d="M31.5344 44.3583L2.10655e-06 25.7979L3.8485 36.8874L18.846 46.6462L31.5344 44.3583Z" fill="url(#paint14_linear)"/>
<path d="M28.0824 61.0743L31.5344 44.3583L18.846 46.6462L12.0353 74.7787L28.0824 61.0743Z" fill="url(#paint15_linear)"/>
<path d="M12.0353 74.7787L40.1243 50.796L40.2576 64.0627L25.2368 74.7787H12.0353Z" fill="url(#paint16_linear)"/>
<path d="M40.1243 50.796L68.0135 67.7514L65.7044 78.1406L40.2577 64.0627L40.1243 50.796Z" fill="url(#paint17_linear)"/>
<path d="M146.348 56.793H139.503V53.6792H141.355V40.5795H136.04V54.1087L133.355 56.793H130V53.6792H131.772L132.738 52.7128V40.5795H131.074V37.4656H146.187V40.5795H144.657V53.6792H146.348V56.793Z" fill="white"/>
<path d="M164.383 56.793H157.807V53.6792H159.417V46.0556L152.975 52.0686V53.6792H154.586V56.793H148.009V53.6792H149.673V40.5795H148.009V37.4656H154.586V40.5795H152.975V48.2031L159.417 42.1901V40.5795H157.807V37.4656H164.383V40.5795H162.719V53.6792H164.383V56.793Z" fill="white"/>
<path d="M178.835 43.1028H175.694V40.5795H171.023V53.6792H173.036V56.793H166.057V53.6792H167.721V40.5795H166.057V37.4656H178.835V43.1028Z" fill="white"/>
<path d="M196.07 56.793H190.084V53.6792H191.936L190.862 50.6459H184.5L183.427 53.6792H185.279V56.793H179.293V53.6792H180.501L186.138 37.4656H189.198L194.862 53.6792H196.07V56.793ZM189.923 47.9883L187.695 41.3848H187.641L185.44 47.9883H189.923Z" fill="white"/>
<path d="M217.119 53.6792L213.817 56.793H207.724L204.422 53.6792V51.1559H207.724V52.7128L208.69 53.6792H212.851L213.817 52.7128V49.1426L212.851 48.1762H208.69V45.5187H212.851L213.817 44.5524V41.5459L212.851 40.5795H208.69L207.724 41.5459V43.1028H204.422V40.5795L207.724 37.4656H213.817L217.119 40.5795V45.5187L215.67 46.8072L217.119 48.1762V53.6792Z" fill="white"/>
<path d="M234.87 56.793H228.052V53.6792H229.904V48.1762H224.079V53.6792H225.931V56.793H219.113V53.6792H220.777V40.5795H219.113V37.4656H225.931V40.5795H224.079V45.5187H229.904V40.5795H228.052V37.4656H234.87V40.5795H233.206V53.6792H234.87V56.793Z" fill="white"/>
<path d="M252.665 56.793H246.679V53.6792H248.531L247.457 50.6459H241.095L240.022 53.6792H241.874V56.793H235.888V53.6792H237.096L242.733 37.4656H245.793L251.457 53.6792H252.665V56.793ZM246.518 47.9883L244.29 41.3848H244.236L242.035 47.9883H246.518Z" fill="white"/>
<path d="M269.446 56.793H262.628V53.6792H264.48V48.1762H258.655V53.6792H260.507V56.793H253.689V53.6792H255.353V40.5795H253.689V37.4656H260.507V40.5795H258.655V45.5187H264.48V40.5795H262.628V37.4656H269.446V40.5795H267.782V53.6792H269.446V56.793Z" fill="white"/>
<path d="M287.482 56.793H280.906V53.6792H282.516V46.0556L276.074 52.0686V53.6792H277.684V56.793H271.108V53.6792H272.772V40.5795H271.108V37.4656H277.684V40.5795H276.074V48.2031L282.516 42.1901V40.5795H280.906V37.4656H287.482V40.5795H285.818V53.6792H287.482V56.793Z" fill="white"/>
<path d="M301.37 34.5934L299.652 35.9893H295.035L293.317 34.5934V32.3922H296.216V33.8149H298.471V32.3922H301.37V34.5934ZM305.53 56.793H298.954V53.6792H300.564V46.0556L294.122 52.0686V53.6792H295.732V56.793H289.156V53.6792H290.82V40.5795H289.156V37.4656H295.732V40.5795H294.122V48.2031L300.564 42.1901V40.5795H298.954V37.4656H305.53V40.5795H303.866V53.6792H305.53V56.793Z" fill="white"/>
<rect x="130.222" y="21.7411" width="174.594" height="2.3294" fill="url(#paint18_linear)"/>
<rect x="130.222" y="72.6552" width="174.594" height="2.3294" fill="url(#paint19_linear)"/>
<defs>
<linearGradient id="paint0_linear" x1="95.3006" y1="61.3117" x2="70.0654" y2="61.3117" gradientUnits="userSpaceOnUse">
<stop stop-color="#9F0002"/>
<stop offset="1" stop-color="#9F0002" stop-opacity="0"/>
</linearGradient>
<linearGradient id="paint1_linear" x1="92.9882" y1="67.2483" x2="67.7878" y2="65.9235" gradientUnits="userSpaceOnUse">
<stop stop-color="#9F0002"/>
<stop offset="0.90625" stop-color="#9F0002" stop-opacity="0"/>
</linearGradient>
<linearGradient id="paint2_linear" x1="92.5445" y1="71.9071" x2="70.8419" y2="69.7974" gradientUnits="userSpaceOnUse">
<stop stop-color="#9F0002"/>
<stop offset="1" stop-color="#9F0002" stop-opacity="0"/>
</linearGradient>
<linearGradient id="paint3_linear" x1="90.6588" y1="75.3458" x2="74.7242" y2="75.3991" gradientUnits="userSpaceOnUse">
<stop stop-color="#9F0002"/>
<stop offset="1" stop-color="#9F0002" stop-opacity="0"/>
</linearGradient>
<linearGradient id="paint4_linear" x1="124.64" y1="39.9035" x2="55.4235" y2="39.9034" gradientUnits="userSpaceOnUse">
<stop stop-color="#A00002"/>
<stop offset="1" stop-color="#A00002" stop-opacity="0"/>
</linearGradient>
<linearGradient id="paint5_linear" x1="124.858" y1="42.6765" x2="59.4722" y2="42.6765" gradientUnits="userSpaceOnUse">
<stop stop-color="#A00002"/>
<stop offset="0.921875" stop-color="#A00002" stop-opacity="0"/>
</linearGradient>
<linearGradient id="paint6_linear" x1="125.04" y1="45.7824" x2="64.5747" y2="45.7824" gradientUnits="userSpaceOnUse">
<stop stop-color="#A00002"/>
<stop offset="1" stop-color="#A00002" stop-opacity="0"/>
</linearGradient>
<linearGradient id="paint7_linear" x1="125.262" y1="48.7774" x2="64.7966" y2="48.7774" gradientUnits="userSpaceOnUse">
<stop stop-color="#A00002"/>
<stop offset="0.864583" stop-color="#A00002" stop-opacity="0"/>
</linearGradient>
<linearGradient id="paint8_linear" x1="125.151" y1="51.8832" x2="64.6856" y2="51.8832" gradientUnits="userSpaceOnUse">
<stop stop-color="#A00002"/>
<stop offset="0.73654" stop-color="#A00002" stop-opacity="0"/>
</linearGradient>
<radialGradient id="paint9_radial" cx="0" cy="0" r="1" gradientUnits="userSpaceOnUse" gradientTransform="translate(50.543 43.342) rotate(21.0911) scale(68.123 102.787)">
<stop stop-color="#B0000E"/>
<stop offset="1" stop-color="#F0001B"/>
</radialGradient>
<linearGradient id="paint10_linear" x1="46.9816" y1="35.0381" x2="82.1946" y2="35.0381" gradientUnits="userSpaceOnUse">
<stop stop-color="#BD0705"/>
<stop offset="1" stop-color="#FD0302"/>
</linearGradient>
<linearGradient id="paint11_linear" x1="45.2209" y1="-6.07724e-06" x2="45.2209" y2="35.0381" gradientUnits="userSpaceOnUse">
<stop stop-color="#B4000E"/>
<stop offset="1" stop-color="#D70016"/>
</linearGradient>
<linearGradient id="paint12_linear" x1="41.1437" y1="19.7901" x2="29.9299" y2="25.1637" gradientUnits="userSpaceOnUse">
<stop stop-color="#930105"/>
<stop offset="1" stop-color="#D30015"/>
</linearGradient>
<linearGradient id="paint13_linear" x1="37.715" y1="36.0577" x2="-0.00143136" y2="26.2377" gradientUnits="userSpaceOnUse">
<stop stop-color="#D90017"/>
<stop offset="1" stop-color="#B4000D"/>
</linearGradient>
<linearGradient id="paint14_linear" x1="1.26386e-06" y1="25.7688" x2="31.5116" y2="45.1797" gradientUnits="userSpaceOnUse">
<stop stop-color="#D80118"/>
<stop offset="1" stop-color="#B3000D"/>
</linearGradient>
<linearGradient id="paint15_linear" x1="18.7992" y1="46.5405" x2="27.9284" y2="61.1867" gradientUnits="userSpaceOnUse">
<stop stop-color="#D80016"/>
<stop offset="1" stop-color="#B4000D"/>
</linearGradient>
<linearGradient id="paint16_linear" x1="12.0466" y1="74.8036" x2="40.224" y2="50.8043" gradientUnits="userSpaceOnUse">
<stop stop-color="#B3000D"/>
<stop offset="1" stop-color="#D60016"/>
</linearGradient>
<linearGradient id="paint17_linear" x1="40.1243" y1="50.796" x2="68.0211" y2="67.5199" gradientUnits="userSpaceOnUse">
<stop stop-color="#B3000D"/>
<stop offset="1" stop-color="#D90017"/>
</linearGradient>
<linearGradient id="paint18_linear" x1="151.966" y1="24.0774" x2="158.535" y2="-5.51768" gradientUnits="userSpaceOnUse">
<stop stop-color="#D90017"/>
<stop offset="1" stop-color="#B4000D"/>
</linearGradient>
<linearGradient id="paint19_linear" x1="151.966" y1="74.9914" x2="158.535" y2="45.3964" gradientUnits="userSpaceOnUse">
<stop stop-color="#D90017"/>
<stop offset="1" stop-color="#B4000D"/>
</linearGradient>
</defs>
</svg>

<svg width="306" height="79" viewBox="0 0 306 79" fill="none" xmlns="http://www.w3.org/2000/svg"><path d="M94.635 61.312c.887-.222.666-.832.444-1.11L68.124 46.504l-.72.777 27.231 14.032z" fill="url(#paint0_linear)"/><path d="M92.324 67.213c.897-.175.708-.795.5-1.084L66.628 51.034l-.761.737 26.458 15.442z" fill="url(#paint1_linear)"/><path d="M91.88 71.872c.898-.175.708-.796.501-1.084L66.183 55.693l-.76.737L91.88 71.872z" fill="url(#paint2_linear)"/><path d="M89.994 75.31c.898-.174.709-.795.502-1.084L64.297 59.131l-.76.738L89.994 75.31z" fill="url(#paint3_linear)"/><path d="M125.527 35.633c.089-.666-.591-.758-.942-.721L64.242 38.85 62.8 39.903c20.484-1.275 61.574-3.826 62.062-3.826.488 0 .647-.296.665-.444z" fill="url(#paint4_linear)"/><path d="M125.796 38.412c.094-.665-.625-.757-.997-.72l-63.802 3.932-1.525 1.052c21.659-1.273 65.105-3.821 65.621-3.821.516 0 .684-.295.703-.443z" fill="url(#paint5_linear)"/><path d="M125.908 41.518c.087-.665-.579-.757-.922-.72L65.985 44.73l-1.41 1.052c20.028-1.273 60.205-3.821 60.682-3.821.477 0 .633-.295.651-.443z" fill="url(#paint6_linear)"/><path d="M126.13 44.513c.087-.665-.579-.757-.922-.72l-59.001 3.932-1.41 1.052c20.028-1.273 60.205-3.821 60.682-3.821.477 0 .633-.296.651-.443z" fill="url(#paint7_linear)"/><path d="M126.019 47.618c.087-.664-.579-.756-.922-.72l-59.001 3.933-1.41 1.052c20.028-1.274 60.205-3.821 60.682-3.821.477 0 .633-.296.651-.444z" fill="url(#paint8_linear)"/><path d="M68.235 33.969l56.239-3.328c1.42-.222 1.775 1.017 1.775 1.664a2.035 2.035 0 01-1.775 1.608L94.802 35.8l-25.568 1.609c-6.123.399-9.54 5.564-10.483 8.097-1.952 3.106-1.072 7.543-.388 9.373 1.597 3.372 5.325 6.249 6.988 7.266l6.046 3.66L87.98 75.843c1.819.843 1.386 2.015.943 2.495-.577 1.199-2.052.5-2.718 0L62.911 64.474c-10.96-4.97-10.408-15.233-8.763-19.744 2.884-8.608 10.593-10.76 14.087-10.76z" fill="url(#paint9_radial)"/><path d="M46.952 34.996l35.243-1.844-7.348-7.33-19.615.35-8.28 8.824z" fill="url(#paint10_linear)"/><path d="M35.22 6.047l11.732 28.95 8.28-8.826L44.479 0l-9.26 6.047z" fill="url(#paint11_linear)"/><path d="M35.22 6.047L29.902 24.42l7.79 11.043 3.452-14.801L35.22 6.047z" fill="url(#paint12_linear)"/><path d="M29.902 24.42L0 25.798l17.377 10.226 20.315-.56-7.79-11.044z" fill="url(#paint13_linear)"/><path d="M31.534 44.358L0 25.798l3.849 11.09 14.997 9.758 12.688-2.288z" fill="url(#paint14_linear)"/><path d="M28.082 61.074l3.452-16.716-12.688 2.288-6.81 28.133 16.046-13.705z" fill="url(#paint15_linear)"/><path d="M12.035 74.779l28.09-23.983.133 13.267-15.021 10.716H12.035z" fill="url(#paint16_linear)"/><path d="M40.124 50.796l27.89 16.955-2.31 10.39-25.446-14.078-.134-13.267z" fill="url(#paint17_linear)"/><path d="M146.348 56.793h-6.845v-3.114h1.852v-13.1h-5.315v13.53l-2.685 2.684H130v-3.114h1.772l.966-.966V40.58h-1.664v-3.114h15.113v3.114h-1.53v13.1h1.691v3.113zm18.035 0h-6.576v-3.114h1.61v-7.623l-6.442 6.013v1.61h1.611v3.114h-6.577v-3.114h1.664v-13.1h-1.664v-3.113h6.577v3.114h-1.611v7.623l6.442-6.013v-1.61h-1.61v-3.114h6.576v3.114h-1.664v13.1h1.664v3.113zm14.452-13.69h-3.141V40.58h-4.671v13.1h2.013v3.113h-6.979v-3.114h1.664v-13.1h-1.664v-3.113h12.778v5.637zm17.235 13.69h-5.986v-3.114h1.852l-1.074-3.033H184.5l-1.073 3.033h1.852v3.114h-5.986v-3.114h1.208l5.637-16.213h3.06l5.664 16.213h1.208v3.114zm-6.147-8.805l-2.228-6.603h-.054l-2.201 6.603h4.483zm27.196 5.692l-3.302 3.113h-6.093l-3.302-3.114v-2.523h3.302v1.557l.966.966h4.161l.966-.966v-3.57l-.966-.967h-4.161V45.52h4.161l.966-.967v-3.006l-.966-.966h-4.161l-.966.966v1.557h-3.302V40.58l3.302-3.114h6.093l3.302 3.114v4.939l-1.449 1.288 1.449 1.37v5.502zm17.751 3.113h-6.818v-3.114h1.852v-5.503h-5.825v5.503h1.852v3.114h-6.818v-3.114h1.664v-13.1h-1.664v-3.113h6.818v3.114h-1.852v4.939h5.825v-4.94h-1.852v-3.113h6.818v3.114h-1.664v13.1h1.664v3.113zm17.795 0h-5.986v-3.114h1.852l-1.074-3.033h-6.362l-1.073 3.033h1.852v3.114h-5.986v-3.114h1.208l5.637-16.213h3.06l5.664 16.213h1.208v3.114zm-6.147-8.805l-2.228-6.603h-.054l-2.201 6.603h4.483zm22.928 8.805h-6.818v-3.114h1.852v-5.503h-5.825v5.503h1.852v3.114h-6.818v-3.114h1.664v-13.1h-1.664v-3.113h6.818v3.114h-1.852v4.939h5.825v-4.94h-1.852v-3.113h6.818v3.114h-1.664v13.1h1.664v3.113zm18.036 0h-6.576v-3.114h1.61v-7.623l-6.442 6.013v1.61h1.61v3.114h-6.576v-3.114h1.664v-13.1h-1.664v-3.113h6.576v3.114h-1.61v7.623l6.442-6.013v-1.61h-1.61v-3.114h6.576v3.114h-1.664v13.1h1.664v3.113zm13.888-22.2l-1.718 1.396h-4.617l-1.718-1.396v-2.2h2.899v1.422h2.255v-1.423h2.899v2.201zm4.16 22.2h-6.576v-3.114h1.61v-7.623l-6.442 6.013v1.61h1.61v3.114h-6.576v-3.114h1.664v-13.1h-1.664v-3.113h6.576v3.114h-1.61v7.623l6.442-6.013v-1.61h-1.61v-3.114h6.576v3.114h-1.664v13.1h1.664v3.113z" fill="#fff"/><path fill="url(#paint18_linear)" d="M130.222 21.741h174.594v2.329H130.222z"/><path fill="url(#paint19_linear)" d="M130.222 72.655h174.594v2.329H130.222z"/><defs><linearGradient id="paint0_linear" x1="95.301" y1="61.312" x2="70.065" y2="61.312" gradientUnits="userSpaceOnUse"><stop stop-color="#9F0002"/><stop offset="1" stop-color="#9F0002" stop-opacity="0"/></linearGradient><linearGradient id="paint1_linear" x1="92.988" y1="67.248" x2="67.788" y2="65.924" gradientUnits="userSpaceOnUse"><stop stop-color="#9F0002"/><stop offset=".906" stop-color="#9F0002" stop-opacity="0"/></linearGradient><linearGradient id="paint2_linear" x1="92.544" y1="71.907" x2="70.842" y2="69.797" gradientUnits="userSpaceOnUse"><stop stop-color="#9F0002"/><stop offset="1" stop-color="#9F0002" stop-opacity="0"/></linearGradient><linearGradient id="paint3_linear" x1="90.659" y1="75.346" x2="74.724" y2="75.399" gradientUnits="userSpaceOnUse"><stop stop-color="#9F0002"/><stop offset="1" stop-color="#9F0002" stop-opacity="0"/></linearGradient><linearGradient id="paint4_linear" x1="124.64" y1="39.904" x2="55.423" y2="39.903" gradientUnits="userSpaceOnUse"><stop stop-color="#A00002"/><stop offset="1" stop-color="#A00002" stop-opacity="0"/></linearGradient><linearGradient id="paint5_linear" x1="124.858" y1="42.676" x2="59.472" y2="42.676" gradientUnits="userSpaceOnUse"><stop stop-color="#A00002"/><stop offset=".922" stop-color="#A00002" stop-opacity="0"/></linearGradient><linearGradient id="paint6_linear" x1="125.04" y1="45.782" x2="64.575" y2="45.782" gradientUnits="userSpaceOnUse"><stop stop-color="#A00002"/><stop offset="1" stop-color="#A00002" stop-opacity="0"/></linearGradient><linearGradient id="paint7_linear" x1="125.262" y1="48.777" x2="64.797" y2="48.777" gradientUnits="userSpaceOnUse"><stop stop-color="#A00002"/><stop offset=".865" stop-color="#A00002" stop-opacity="0"/></linearGradient><linearGradient id="paint8_linear" x1="125.151" y1="51.883" x2="64.686" y2="51.883" gradientUnits="userSpaceOnUse"><stop stop-color="#A00002"/><stop offset=".737" stop-color="#A00002" stop-opacity="0"/></linearGradient><linearGradient id="paint10_linear" x1="46.982" y1="35.038" x2="82.195" y2="35.038" gradientUnits="userSpaceOnUse"><stop stop-color="#BD0705"/><stop offset="1" stop-color="#FD0302"/></linearGradient><linearGradient id="paint11_linear" x1="45.221" y1="0" x2="45.221" y2="35.038" gradientUnits="userSpaceOnUse"><stop stop-color="#B4000E"/><stop offset="1" stop-color="#D70016"/></linearGradient><linearGradient id="paint12_linear" x1="41.144" y1="19.79" x2="29.93" y2="25.164" gradientUnits="userSpaceOnUse"><stop stop-color="#930105"/><stop offset="1" stop-color="#D30015"/></linearGradient><linearGradient id="paint13_linear" x1="37.715" y1="36.058" x2="-.001" y2="26.238" gradientUnits="userSpaceOnUse"><stop stop-color="#D90017"/><stop offset="1" stop-color="#B4000D"/></linearGradient><linearGradient id="paint14_linear" x1="0" y1="25.769" x2="31.512" y2="45.18" gradientUnits="userSpaceOnUse"><stop stop-color="#D80118"/><stop offset="1" stop-color="#B3000D"/></linearGradient><linearGradient id="paint15_linear" x1="18.799" y1="46.541" x2="27.928" y2="61.187" gradientUnits="userSpaceOnUse"><stop stop-color="#D80016"/><stop offset="1" stop-color="#B4000D"/></linearGradient><linearGradient id="paint16_linear" x1="12.047" y1="74.804" x2="40.224" y2="50.804" gradientUnits="userSpaceOnUse"><stop stop-color="#B3000D"/><stop offset="1" stop-color="#D60016"/></linearGradient><linearGradient id="paint17_linear" x1="40.124" y1="50.796" x2="68.021" y2="67.52" gradientUnits="userSpaceOnUse"><stop stop-color="#B3000D"/><stop offset="1" stop-color="#D90017"/></linearGradient><linearGradient id="paint18_linear" x1="151.966" y1="24.077" x2="158.535" y2="-5.518" gradientUnits="userSpaceOnUse"><stop stop-color="#D90017"/><stop offset="1" stop-color="#B4000D"/></linearGradient><linearGradient id="paint19_linear" x1="151.966" y1="74.991" x2="158.535" y2="45.396" gradientUnits="userSpaceOnUse"><stop stop-color="#D90017"/><stop offset="1" stop-color="#B4000D"/></linearGradient><radialGradient id="paint9_radial" cx="0" cy="0" r="1" gradientUnits="userSpaceOnUse" gradientTransform="rotate(21.091 -91.138 157.421) scale(68.123 102.787)"><stop stop-color="#B0000E"/><stop offset="1" stop-color="#F0001B"/></radialGradient></defs></svg>
